X:7552
T:Thyme, It is a Precious Thing
O:england
S:Digital Tradition, thymepre
D:Sung by John and Tony on Spencer the Rover
M:4/4
L:1/8
Q:2/4=100
W:  Chorus:
W:  Thyme it is a precious thing
W:  Thyme brings all things to your mind
W:  Thyme with all its labors, along with all its joys
W:  And its thyme brings all things to an end
W:
W:Once I had a sprig of thyme
W:I thought it never would decay
W:Until a saucy sailor chanced upon my way
W:He stole away my bonny bunch of thyme
W:
W:This sailor, he gave to me a rose
W:I thought it never would decay
W:He gave it to me to keep me well-minded
W:Of the night he stole my bonny bunch of thyme
W:
W:So come all you maidens brisk and gay
W:All you that flourish in your prime
W:Beware and take care and keep your garden fair
W:And let no man steal your bonny bunch of thyme
K:D
A2|"D"F6D2|"A"C2E2 "A7"GF-F2|"D"D8-|D8|\
"D"A6A2|"Em7"^G2A2 B2A2|"A"E8-|E8|
"D"A2-AA B2A2|D2F4-FA|"G"B2-BB G2E2|"A"D-C-C4B,A,|\
"D"F6D2|"A"C2E2 G2F2|"D"D8-|D6||
